assets/Zipper-mouth face/Flat/zipper-mouth_face_flat.svg

<svg width="32" height="32" viewBox="0 0 32 32" fill="none" xmlns="http://www.w3.org/2000/svg">
<path d="M15.9989 29.9978C25.3333 29.9978 29.9978 23.7303 29.9978 15.9989C29.9978 8.26751 25.3333 2 15.9989 2C6.66443 2 2 8.26751 2 15.9989C2 23.7303 6.66443 29.9978 15.9989 29.9978Z" fill="#FFB02E"/>
<path d="M10.5 16C12.9853 16 15 13.9853 15 11.5C15 9.01472 12.9853 7 10.5 7C8.01472 7 6 9.01472 6 11.5C6 13.9853 8.01472 16 10.5 16Z" fill="white"/>
<path d="M21.5 16C23.9853 16 26 13.9853 26 11.5C26 9.01472 23.9853 7 21.5 7C19.0147 7 17 9.01472 17 11.5C17 13.9853 19.0147 16 21.5 16Z" fill="white"/>
<path d="M12.5 11.5C12.5 12.6046 11.6046 13.5 10.5 13.5C9.39543 13.5 8.5 12.6046 8.5 11.5C8.5 10.3954 9.39543 9.5 10.5 9.5C11.6046 9.5 12.5 10.3954 12.5 11.5Z" fill="#402A32"/>
<path d="M23.5 11.5C23.5 12.6046 22.6046 13.5 21.5 13.5C20.3954 13.5 19.5 12.6046 19.5 11.5C19.5 10.3954 20.3954 9.5 21.5 9.5C22.6046 9.5 23.5 10.3954 23.5 11.5Z" fill="#402A32"/>
<path d="M8.25 18C7.55964 18 7 18.5596 7 19.25V22H9.5V22.75C9.5 23.4404 10.0596 24 10.75 24C11.4404 24 12 23.4404 12 22.75V22H14.5V22.75C14.5 23.4404 15.0596 24 15.75 24C16.4404 24 17 23.4404 17 22.75V22H19.5V22.75C19.5 23.4404 20.0596 24 20.75 24C21.4404 24 22 23.4404 22 22.75V22H23.314C22.8428 22.7624 22.8971 23.7715 23.5096 24.4827L25.929 27.272C26.7249 28.1947 28.1468 28.2477 29.0063 27.3887L29.3883 27.0069C30.2479 26.1478 30.1948 24.7266 29.2716 23.9312L26.4808 21.5131C25.916 21.0272 25.168 20.8879 24.5 21.0888V19.25C24.5 18.5596 23.9404 18 23.25 18C22.5596 18 22 18.5596 22 19.25V20H19.5V19.25C19.5 18.5596 18.9404 18 18.25 18C17.5596 18 17 18.5596 17 19.25V20H14.5V19.25C14.5 18.5596 13.9404 18 13.25 18C12.5596 18 12 18.5596 12 19.25V20H9.5V19.25C9.5 18.5596 8.94036 18 8.25 18ZM24.1463 23.4752C23.7855 23.1146 23.7855 22.5206 24.1463 22.16C24.5071 21.7995 25.1013 21.7995 25.4621 22.16C25.8335 22.5206 25.8335 23.1146 25.4621 23.4752C25.1013 23.8357 24.5071 23.8357 24.1463 23.4752Z" fill="#9B9B9B"/>
</svg>

<svg xmlns="http://www.w3.org/2000/svg" width="32" height="32" fill="none"><path fill="#FFB02E" d="M15.999 29.998c9.334 0 13.999-6.268 13.999-14 0-7.73-4.665-13.998-14-13.998C6.665 2 2 8.268 2 15.999c0 7.731 4.664 13.999 13.999 13.999Z"/><path fill="#fff" d="M10.5 16a4.5 4.5 0 1 0 0-9 4.5 4.5 0 0 0 0 9ZM21.5 16a4.5 4.5 0 1 0 0-9 4.5 4.5 0 0 0 0 9Z"/><path fill="#402A32" d="M12.5 11.5a2 2 0 1 1-4 0 2 2 0 0 1 4 0ZM23.5 11.5a2 2 0 1 1-4 0 2 2 0 0 1 4 0Z"/><path fill="#9B9B9B" d="M8.25 18C7.56 18 7 18.56 7 19.25V22h2.5v.75a1.25 1.25 0 1 0 2.5 0V22h2.5v.75a1.25 1.25 0 1 0 2.5 0V22h2.5v.75a1.25 1.25 0 1 0 2.5 0V22h1.314a2.11 2.11 0 0 0 .196 2.483l2.419 2.789a2.107 2.107 0 0 0 3.077.117l.382-.382c.86-.86.807-2.28-.116-3.076l-2.791-2.418a2.103 2.103 0 0 0-1.981-.424V19.25a1.25 1.25 0 1 0-2.5 0V20h-2.5v-.75a1.25 1.25 0 1 0-2.5 0V20h-2.5v-.75a1.25 1.25 0 1 0-2.5 0V20H9.5v-.75c0-.69-.56-1.25-1.25-1.25Zm15.896 5.475a.934.934 0 0 1 0-1.315.936.936 0 0 1 1.316 0 .916.916 0 0 1 0 1.315.936.936 0 0 1-1.316 0Z"/></svg>
